icon/ir/hydrogen.svg

<svg stroke-width="1.5" viewBox="0 0 24 24" fill="none" xmlns="http://www.w3.org/2000/svg" height="1em" width="1em">
  <path d="M21 3.6V20.4C21 20.7314 20.7314 21 20.4 21H3.6C3.26863 21 3 20.7314 3 20.4V3.6C3 3.26863 3.26863 3 3.6 3H20.4C20.7314 3 21 3.26863 21 3.6Z" stroke="currentColor" stroke-linecap="round" stroke-linejoin="round"/>
  <path d="M10 8V12M10 16V12M10 12H14M14 12L14 8M14 12L14 16" stroke="currentColor" stroke-linecap="round" stroke-linejoin="round"/>
</svg>

<svg width="24" stroke-width="1.5" height="24" fill="none" xmlns="http://www.w3.org/2000/svg"><path d="M21 3.6v16.8a.6.6 0 0 1-.6.6H3.6a.6.6 0 0 1-.6-.6V3.6a.6.6 0 0 1 .6-.6h16.8a.6.6 0 0 1 .6.6ZM10 8v4m0 4v-4m0 0h4m0 0V8m0 4v4" stroke="currentColor" stroke-linecap="round" stroke-linejoin="round"/></svg>
